images/icon_phone.svg

<svg width="24" height="24" viewBox="0 0 24 24" fill="none" xmlns="http://www.w3.org/2000/svg">
<path d="M8.12351 5.7536C8.89761 6.53769 8.89761 7.51654 8.12351 8.29563C7.5342 8.88994 6.94488 9.48425 6.34558 10.0686C6.18077 10.2284 6.14582 10.3632 6.25569 10.558C6.46544 10.9425 6.63524 11.3521 6.86498 11.7216C7.94871 13.4446 9.34209 14.8879 10.9103 16.1665C11.6893 16.8007 12.5234 17.3651 13.4623 17.7596C13.6521 17.8395 13.7769 17.8245 13.9317 17.6697C14.5061 17.0754 15.0954 16.4961 15.6847 15.9117C16.5037 15.0977 17.4626 15.0977 18.2867 15.9167C18.7561 16.3812 19.2156 16.8457 19.685 17.3101C20.1645 17.7896 20.6489 18.264 21.1233 18.7484C21.8875 19.5325 21.8875 20.5114 21.1183 21.2905C20.529 21.8898 19.9247 22.4641 19.3454 23.0734C18.811 23.6377 18.1568 23.9224 17.3927 23.9823C16.1491 24.0772 14.9755 23.7726 13.8318 23.3431C11.4646 22.4641 9.36206 21.1257 7.43431 19.5026C4.82735 17.3101 2.76476 14.6932 1.2765 11.6317C0.607277 10.2533 0.0928783 8.82502 0.00797653 7.27183C-0.0519543 6.20308 0.217731 5.27416 1.05176 4.53003C1.62109 4.02062 2.14049 3.44629 2.68485 2.90692C3.49391 2.10785 4.47277 2.10286 5.27184 2.89693C6.22572 3.84583 7.17462 4.79971 8.12351 5.7536Z" fill="#D0F00A"/>
<path d="M12.1039 6.70747L12.4185 4.86462C14.1115 5.15428 15.6447 5.95335 16.8633 7.16694C18.1468 8.45044 18.9559 10.0735 19.2056 11.8615L17.3527 12.1212C17.158 10.7378 16.5337 9.47924 15.5398 8.4854C14.6009 7.54649 13.4123 6.93221 12.1039 6.70747Z" fill="#D0F00A"/>
<path d="M20.1145 3.82586C22.2421 5.95337 23.5855 8.64523 24 11.6168L22.1472 11.8765C21.7876 9.30946 20.6239 6.98218 18.7911 5.14432C17.0481 3.40135 14.8457 2.25769 12.4235 1.84317L12.7381 0.000320435C15.5449 0.484756 18.0919 1.80821 20.1145 3.82586Z" fill="#D0F00A"/>
</svg>

<svg width="24" height="24" fill="none" xmlns="http://www.w3.org/2000/svg"><path d="M8.124 5.754c.774.784.774 1.763 0 2.542-.59.594-1.18 1.188-1.778 1.773-.165.16-.2.294-.09.489.21.385.38.794.609 1.164 1.084 1.723 2.477 3.166 4.045 4.444.78.635 1.613 1.2 2.552 1.594.19.08.315.064.47-.09.574-.595 1.163-1.174 1.753-1.758.819-.814 1.778-.814 2.602.005.47.464.929.929 1.398 1.393.48.48.964.954 1.438 1.438.764.784.764 1.763-.005 2.543-.589.599-1.193 1.173-1.773 1.782-.534.565-1.188.85-1.952.91-1.244.094-2.418-.21-3.561-.64-2.367-.879-4.47-2.217-6.398-3.84-2.607-2.193-4.67-4.81-6.157-7.871C.607 10.253.093 8.825.008 7.272c-.06-1.069.21-1.998 1.044-2.742.57-.51 1.088-1.084 1.633-1.623.809-.8 1.788-.804 2.587-.01a769.58 769.58 0 012.852 2.857zm3.98.953l.315-1.842a8.237 8.237 0 014.444 2.302 8.192 8.192 0 012.343 4.694l-1.853.26a6.355 6.355 0 00-1.813-3.636 6.355 6.355 0 00-3.436-1.778zm8.01-2.881A13.588 13.588 0 0124 11.616l-1.853.26a11.783 11.783 0 00-3.356-6.732 11.773 11.773 0 00-6.367-3.3L12.738 0a13.688 13.688 0 017.377 3.826z" fill="#D0F00A"/></svg>
